X: 169
T:There's nae Harm Done Goodwife
B:William Marshall A Collection Of Strathspey Reels (1781)
C:William Marshall
L:1/8
M:C|
O:Scotland
R:Reel?
Z:Clark Bernst + Richard Robinson
%%Page:7 - 2
F:http://richardrobinson.tunebook.org.uk/tune/4012
%%TBL:{"version":1,"type":"tune","id":"4012"}
K:D
%%staves {1 2}
V:1
D2- DA F<DdF | E2- Ee ^G<Eeg | fdec dBAF | GBAF D/D/D D2 :| \
abaf dfaf | 
            gebe gebe |1 \
abaf dfaf | geaf d/d/d d2 :|2 \
dfeg fbec | dBAF D/D/D D2 |]
V:2 middle=d clef=bass
L:1/4
dddd | eeee | dcBA | gadd :| \
dddd | eeee | |1 fdfa | gadd :|2 dcBA | GA DD |]


%%TunebookLive:end
